X:1
T:DUAN MAIREAD
M:3/4
L:1/8
Q:80
C:Dorthy May
S:SLOW AIR
K:HP
[| e2 | \
G3A{GdG}c2 | \
e6 |
{g}d3/2c/2{Ad}A3G | \
A4e2 | \
{g}G3A{GdG}c2 | \
{Gdc}d2{g}e2d3/2c/2 |
A4G2|1
A4:|2
{AGAG}A4|]  | \
{g}ef|:
{gf}g3fe2 | \
{ag}a4 | \
gf{ef}e2d2 |
{g}e4{A}ef|1
{ef}g2f2{ef}e2 | \
a2{gf}g2f2 |
{ef}e4d2 | \
{GdG}e4{g}ef:|2
g2{fg}f2e2 |
{ag}a2g2{fg}f2 | \
e3cd3/2c/2{G}A4|]
